public/img/left.svg

<svg width="7" height="15" viewBox="0 0 7 15" fill="none" xmlns="http://www.w3.org/2000/svg">
<g clip-path="url(#clip0_98_2284)">
<path d="M4.95548 3.29962C5.00858 3.29895 5.06123 3.30978 5.11004 3.33141C5.15885 3.35304 5.20274 3.385 5.23889 3.42522C5.40084 3.59269 5.40084 3.85227 5.23889 4.01973L1.87849 7.4947L5.23889 10.9613C5.40084 11.1288 5.40084 11.3883 5.23889 11.5558C5.07694 11.7233 4.82593 11.7233 4.66398 11.5558L1.02827 7.77939C0.866319 7.61192 0.866319 7.35235 1.02827 7.18488L4.67208 3.42522C4.75305 3.34149 4.85832 3.29962 4.95548 3.29962Z" fill="#B4B4B4"/>
</g>
<defs>
<clipPath id="clip0_98_2284">
<rect width="5.66815" height="13.3974" fill="white" transform="matrix(-1 0 0 -1 6.16992 14.1851)"/>
</clipPath>
</defs>
</svg>

<svg xmlns="http://www.w3.org/2000/svg" width="7" height="15" fill="none"><g clip-path="url(#a)"><path fill="#B4B4B4" d="M4.955 3.3a.37.37 0 0 1 .284.125.424.424 0 0 1 0 .595l-3.36 3.475 3.36 3.466a.424.424 0 0 1 0 .595.39.39 0 0 1-.575 0L1.028 7.779a.424.424 0 0 1 0-.594l3.644-3.76a.4.4 0 0 1 .283-.125"/></g><defs><clipPath id="a"><path fill="#fff" d="M6.17 14.185H.502V.788H6.17z"/></clipPath></defs></svg>
